X:620
%%etbk:tnset id:366,pos:1,rep:3x,ant:
%%etbk:pldat 2016-08-18T18:14,2016-08-17T15:30,2016-08-16T15:28,2016-08-15T18:39,2016-08-12T16:18,2016-08-11T18:12,2016-08-10T15:28,2016-08-09T16:11,2016-08-08T18:10,2016-08-06T10:59,2016-05-19T19:23,2016-05-18T15:38,2016-05-17T17:03,2016-05-16T15:26,2016-05-15T15:13,2016-05-14T16:56,2016-05-11T17:04,2016-05-10T19:09,2015-11-20T17:32,2015-11-18T17:10,2015-11-17T17:08,2015-11-15T15:18,2015-11-14T15:50,2015-11-11T15:16,2015-11-10T17:45,2015-11-08T14:08,2015-09-10T16:17,2015-09-09T16:31,2015-09-08T18:51,2015-09-03T16:23,2015-09-02T16:21,2015-09-01T16:18,2015-08-31T18:39,2015-08-30T14:35,2015-08-28T18:45,2015-08-26T15:42,2015-08-06T17:28,2015-08-05T16:02,2015-08-04T16:27,2015-08-03T18:11,2015-08-02T11:01,2015-08-01T15:54,2015-07-30T17:55,2015-07-25T13:48,2015-07-22T16:02,2015-06-24T18:36,2015-06-18T18:06,2015-06-16T16:14,2015-05-07T18:58,2015-04-16T19:07,2015-04-15T16:27,2015-04-13T18:45,2015-04-12T11:13,2015-04-11T14:28,2015-04-08T17:06,2015-03-19T18:58,2015-03-16T19:10,2015-03-15T13:58,2015-03-11T15:43,2015-03-06T18:03,2015-03-05T18:41,2015-03-04T16:14,2015-02-22T15:21,2015-02-21T16:38,2015-02-19T18:54,2015-02-18T15:50,2015-02-17T16:02,2015-02-13T18:14,2015-02-10T17:23,2015-02-03T17:32,2015-02-02T18:37,2015-01-31T15:57,2015-01-27T17:45,2015-01-26T18:45,2015-01-21T17:24,2015-01-14T15:51,2015-01-13T17:29,2015-01-12T18:07,2015-01-08T17:54,2015-01-07T15:36,2015-01-06T18:27,2015-01-05T18:25,2014-12-30T17:15,2014-12-29T16:33,2014-12-28T14:06,2014-12-27T13:57,2014-12-26T15:57,2014-12-20T14:03,2014-12-17T19:15,2014-12-15T16:11,2014-12-14T15:12,2014-12-13T16:45,2014-12-10T16:17,2014-12-09T16:39,2014-12-07T12:03,2014-12-06T15:15,2014-12-04T18:57,2014-12-03T16:38,2014-12-01T18:49,2014-11-30T15:07,2014-11-26T15:37,2014-11-25T18:30,2014-11-24T15:05
T: Beer Bally Dancing
Z: Piano Box Version by Martin Fleischmann
H: Created 2014-05-10 /  Last Modified 2016-05-10
L: 1/8
M: 4/4
R: reel
K: Dmaj
|:"F#" !2!~F2 !5!cF !3!GFcF | ~F2 cF GF E/F/G | ~F2 cF GFc!2!F | !3!^AB!3!cd !5!ed!3!c!1!G |
!2!~F2 cF GFcF | ~F2 cF GF E/F/G |1 !1!~F2 !2!c!1!F zFc!5!g- | gfe!1!d !4!cB^AG :|2 ~F2 cF GFc!3!^A- | ABcd edce ||
"bm" !4!d3 d- dc B2- | Bcde dcBd | "F#" !3!c!1!F!2!FE F2 cF | !2!FE!2!F!1!G !3!^AB!3!c!5!e 
|1 "bm" !4!d3 !2!c !3!dc!1!Bc | !3!d!5!f!4!e!2!c !4!dcBd |"F#" cFFE F2 cF | FEFG TF4 :|
|2 !4!"bm" d3 c !1!de !3!f2- | f!4!gfe !1!d!3!cB!4!d | "F#" cFFE F2 cF | FEFG TF4 ||
"em" [Bg]8- | [Bg]2 [c^a]4 [db]2 | [ec']8- | [ec']2 [db]4 [c^a]2 | "F#" [Bg]6 [^Af]2- | [Af]8- | [Af]8 | z8 |
"em" [Bg]8- | [Bg]2 [c^a]4 [db]2 | [ec']8- |  [ec']2 [gd']6 |$"F#" [fc'f']8- | [fc'f']8 |"^BREAK!" z8 | z8 |]
|"var"!2!~F2 !5!c!2!F !1!G!2!B!3!c!5!g- | gfe!1!d !4!cB^AG
|"var"!1!~F2 !3!c!1!F z!1!F!2!c!5!g- | gfe!1!d !4!cB^AG


